svgs/thin/person-seat.svg

<svg xmlns="http://www.w3.org/2000/svg" viewBox="0 0 384 512"><!-- Font Awesome Pro 6.0.0-alpha2 by @fontawesome - https://fontawesome.com License - https://fontawesome.com/license (Commercial License) --><path d="M216 416H129.594C66.953 416 16 365.031 16 302.406V136C16 131.594 12.422 128 8 128S0 131.594 0 136V302.406C0 373.875 58.141 432 129.594 432H216C220.422 432 224 428.406 224 424S220.422 416 216 416ZM138.729 104C167.432 104 190.729 80.719 190.729 52S167.463 0 138.729 0S86.729 23.281 86.729 52S110.025 104 138.729 104ZM138.729 16C158.572 16 174.729 32.156 174.729 52S158.572 88 138.729 88S102.729 71.844 102.729 52S118.885 16 138.729 16ZM352 416H331.752L319.682 331.479C317.445 315.812 303.826 304 288 304H176V240H240C257.645 240 272 225.645 272 208S257.645 176 240 176H176C176 149.533 154.467 128 128 128S80 149.533 80 176V320C80 346.467 101.533 368 128 368H260.248L272.318 452.521C274.555 468.186 288.176 480 304 480H352C369.645 480 384 465.645 384 448S369.645 416 352 416ZM352 464H304C296.035 464 289.283 458.143 288.158 450.26L274.125 352H128C110.326 352 96 337.672 96 320V176C96 158.312 110.328 144 128 144S160 158.312 160 176V192H240C248.836 192 256 199.162 256 208C256 216.836 248.836 224 240 224H160V320H288C295.965 320 302.717 325.855 303.842 333.74L317.875 432H352C360.844 432 368 439.156 368 448S360.844 464 352 464Z"/></svg>

<svg xmlns="http://www.w3.org/2000/svg" viewBox="0 0 384 512"><!--! Font Awesome Pro 6.3.0 by @fontawesome - https://fontawesome.com License - https://fontawesome.com/license (Commercial License) Copyright 2023 Fonticons, Inc. --><path d="M216 416H129.6C66.95 416 16 365 16 302.4V136C16 131.6 12.42 128 8 128S0 131.6 0 136v166.4C0 373.9 58.14 432 129.6 432H216c4.422 0 8-3.594 8-8S220.4 416 216 416zM138.7 104c28.7 0 52-23.28 52-52S167.5 0 138.7 0s-52 23.28-52 52S110 104 138.7 104zM138.7 16c19.84 0 36 16.16 36 36s-16.16 36-36 36s-36-16.16-36-36S118.9 16 138.7 16zM352 416h-20.25l-12.07-84.52C317.4 315.8 303.8 304 288 304H176v-64h64c17.64 0 32-14.36 32-32s-14.36-32-32-32h-64C176 149.5 154.5 128 128 128S80 149.5 80 176V320c0 26.47 21.53 48 48 48h132.2l12.07 84.52C274.6 468.2 288.2 480 304 480H352c17.64 0 32-14.36 32-32S369.6 416 352 416zM352 464h-48c-7.965 0-14.72-5.857-15.84-13.74L273.1 352H128c-17.67 0-32-14.33-32-32V176c0-17.69 14.33-32 32-32s32 14.31 32 32V192h80C248.8 192 256 199.2 256 208C256 216.8 248.8 224 240 224H160v96h128c7.965 0 14.73 5.985 15.86 13.87L317.9 432H352c8.844 0 16 7.156 16 16S360.8 464 352 464z"/></svg>
